X:444
T: Cai hua diao
N: C1479
O: China, Hunan, Yuanling
S: I, 576]
R: Xiaodiao, Yinniusi diao. Changhua]
M: 2/4
L: 1/32
K: F
d4f2c2A4A2c2 | d4f2c2A4
c2A2 | c4f4d4c4 | d2c2A2G2A8
c4f4d4c4 | d2c2A2G2A4
A2c2 | d4f4d4c4 | A2c2A2G2FG3Ac3 | G2A2G12
A4G4d4d2c2 | c4A2G2c4c4 | G4A2c2G2A2G2F2 | D16
A4c4A4c4 | f2d6
f8 | c4A2G2FG3Ac3 | G2A2G12
A4G4d4d2c2 | c4A2G2c4c4 | G4c4G2A2G2F2 | D16

